tests/fixtures/test_ocio.ocio
ocio_profile_version: 2

description: Minimal config for ComfyOpenClip tests

roles:
  default: linear

colorspaces:
  - !<ColorSpace>
    name: linear
    description: Scene-linear reference
    isdata: false
    allocation: uniform

  - !<ColorSpace>
    name: Rec.1886 Rec.709 - Display
    description: Identity from linear (test stand-in for the real display space)
    isdata: false
    allocation: uniform
    from_scene_reference: !<MatrixTransform>
      matrix: [1, 0, 0, 0, 0, 1, 0, 0, 0, 0, 1, 0, 0, 0, 0, 1]

  - !<ColorSpace>
    name: scaled_2x
    description: Input space where 1 unit = 2 units in scene reference (for testing)
    isdata: false
    allocation: uniform
    to_scene_reference: !<MatrixTransform>
      matrix: [2, 0, 0, 0, 0, 2, 0, 0, 0, 0, 2, 0, 0, 0, 0, 1]
